src/cmd/lc_outlinemode.svg

<svg viewBox="0 0 24 24" xmlns="http://www.w3.org/2000/svg"><path d="m4 4v4h4v-4zm5 0v1h11v-1zm-4 1h2v2h-2zm4 1v1h6v-1zm9 0v1h2v-1zm-14 3v4h4v-4zm5 0v1h11v-1zm-4 1h2v2h-2zm4 1v1h8v-1zm9 1-1 1-5 5v1 1h2l1-1 4-4 1-1zm-.28125 1.6875.5625.59375-4.96875 5-.59375-.59375zm-13.71875.3125v4h4v-4zm5 0v1h4v-1zm-4 1h2v2h-2zm4 1v1h2v-1z" fill="#232629"/></svg>

<?xml version="1.0" encoding="UTF-8" standalone="no"?>
<svg
   xmlns:dc="http://purl.org/dc/elements/1.1/"
   xmlns:cc="http://creativecommons.org/ns#"
   xmlns:rdf="http://www.w3.org/1999/02/22-rdf-syntax-ns#"
   xmlns:svg="http://www.w3.org/2000/svg"
   xmlns="http://www.w3.org/2000/svg"
   xmlns:sodipodi="http://sodipodi.sourceforge.net/DTD/sodipodi-0.dtd"
   xmlns:inkscape="http://www.inkscape.org/namespaces/inkscape"
   viewBox="0 0 24 24"
   version="1.1"
   id="svg4"
   sodipodi:docname="lc_outlinemode.svg"
   inkscape:version="0.92.4 (5da689c313, 2019-01-14)">
  <metadata
     id="metadata10">
    <rdf:RDF>
      <cc:Work
         rdf:about="">
        <dc:format>image/svg+xml</dc:format>
        <dc:type
           rdf:resource="http://purl.org/dc/dcmitype/StillImage" />
      </cc:Work>
    </rdf:RDF>
  </metadata>
  <defs
     id="defs8" />
  <sodipodi:namedview
     pagecolor="#ffffff"
     bordercolor="#666666"
     borderopacity="1"
     objecttolerance="10"
     gridtolerance="10"
     guidetolerance="10"
     inkscape:pageopacity="0"
     inkscape:pageshadow="2"
     inkscape:window-width="1920"
     inkscape:window-height="1011"
     id="namedview6"
     showgrid="true"
     inkscape:zoom="27.812867"
     inkscape:cx="11.576678"
     inkscape:cy="14.622975"
     inkscape:window-x="0"
     inkscape:window-y="32"
     inkscape:window-maximized="1"
     inkscape:current-layer="svg4">
    <inkscape:grid
       type="xygrid"
       id="grid817" />
  </sodipodi:namedview>
  <path
     d="M 4,4 V 8 H 8 V 4 Z M 9,4 V 5 H 20 V 4 Z M 5,5 H 7 V 7 H 5 Z M 9,6 V 7 H 20 V 6 Z M 4,9 v 4 H 8 V 9 Z m 5,0 v 1 H 20 V 9 Z m -4,1 h 2 v 2 H 5 Z m 4,1 v 1 h 8 v -1 z m 9,1 -1,1 -5,5 v 1 1 h 2 l 1,-1 4,-4 1,-1 z m -0.28125,1.6875 0.5625,0.59375 -4.96875,5 -0.59375,-0.59375 z M 4,14 v 4 h 4 v -4 z m 5,0 v 1 h 4 v -1 z m -4,1 h 2 v 2 H 5 Z m 4,1 v 1 h 2 v -1 z"
     id="path2"
     inkscape:connector-curvature="0"
     style="fill:#232629"
     sodipodi:nodetypes="ccccccccccccccccccccccccccccccccccccccccccccccccccccccccccccccccccccccccccc" />
</svg>
